!!!!SEGMENT: pl-kk--kk-i-40--010-002_massaino-tiburzio--missa-sagitta-ionathe-et-in-terra.krn
!!!cenid: 16xx:1315
!!!COM: Massaino, Tiburzio
!!!COM-rismid: pe30005207
!!!CDT: <1550->1608
!!!CNT: Italian
!!!OTL: Missa Sagitta Ionathe – Et in terra
!!!PDT:
!!!AGN: Sacred; Mass
!!!SMS-siglum: PL-Kk
!!!SMS-shelfmark: Kk.I.40
!!!SMS-shelfwork: 010-002 M
!!!SMS-variant:
!!!SMS-altvar:
!!!NIFC-rismid: 1001154532
!!!URL-scan: http://repozytorium.nifc.pl/skany/pl-kk-nut--i-40
!!!ONB-nifc: UWAGA: części Mszy: 1. Kyrie, 2. Et in terra, 3. Sanctus, 4. Benedictus, 5. Agnus Dei. Skan 0013-0014
**kern	**text
*I"Baſso Ripieno.	*
*I'B rip	*
*clefF4	*
*k[b-]	*
*g:	*
*M2/1	*
*met(C|)	*
=1-	=1-
!LO:TX:t=P:problem:przy kluczu BB- B-	!
!LO:TX:t=P:problem:kreska pseudotaktowa	!
00r	.
=2-	=2-
.	.
=3-	=3-
1.G	Et
*2\right	*
2GG/	in
=4-	=4-
2.BB-/	ter-
4C/	-ra
2D\	pax
2E-X\	ho-
=5-	=5-
2.D\	-mi-
4D\	-ni-
!LO:TX:t=P:problem:kreska pseudotaktowa	!
1GG,<	-b(us)
=6-	=6-
!LO:TX:t=P:problem:kreska pseudotaktowa	!
0r	.
=7-	=7-
1.D	pax
2G\	ho-
=8-	=8-
1.A	-mi-
2AA/	-ni-
=9-	=9-
!LO:TX:t=P:problem:kreska pseudotaktowa	!
1D,<	-b(us)
0r	.
=10-	=10-
.	.
!LO:TX:t=P:problem:kreska pseudotaktowa	!
1r	.
=11-	=11-
2r	.
!LO:TX:t=P:problem:kreska pseudotaktowa	!
2D\	Lau-
4Eny\	-da-
4F\	.
4G\	.
4E\	.
=12-	=12-
2F\	.
2F\	-m(us)
!LO:TX:t=P:problem:kreska pseudotaktowa	!
1D	Te
=13-	=13-
0r	.
=14-	=14-
!LO:TX:t=P:problem:kreska pseudotaktowa	!
1r	.
2r	.
2G\	be-
=15-	=15-
2F\	-ne-
!LO:TX:t=P:problem:kreska pseudotaktowa	!
[2D/	-di-
!LO:N:xstem:cue	!
4D/]	.
4C/	.
2.BB-/	.
=16-	=16-
.	.
4F\	-ci-
2G\	-m(us)
!LO:TX:t=P:problem:kreska pseudotaktowa	!
1D,<	Te
=17-	=17-
2r	.
1G	a-
2GG/	-do-
=18-	=18-
2C/	-ra-
!LO:TX:t=P:problem:kreska pseudotaktowa	!
2c\	.
!LO:LB:g=original	!
2.A\	.
4A\	-m(us)
=19-	=19-
!LO:TX:t=P:problem:kreska pseudotaktowa	!
0G	Te
=20-	=20-
0r	.
=21-	=21-
!LO:TX:t=P:problem:kreska pseudotaktowa	!
1r	.
2r	.
2G\	glo-
=22-	=22-
2G\	-ri-
!LO:TX:t=P:problem:kreska pseudotaktowa	!
2G\	-fi-
4F\	-ca-
4E\	.
4D/	.
!LO:TX:t=P:problem:kreska pseudotaktowa	!
4C/	.
=23-	=23-
4BB-/	.
4AA/	.
!LO:TX:t=P:problem:kreska pseudotaktowa	!
[2GG/	.
!LO:N:xstem:cue	!
4GG/]	.
4AA/	.
2BB-/	.
=24-	=24-
1.AA	.
2AA/	-mus
=25-	=25-
*M3/2	*
!LO:TX:t=P:problem:kreska pseudotaktowa	!
1.D	Te.
=26-	=26-
2.BB-/	Gra-
4BB-/	-ti-
!LO:TX:t=P:problem:kreska pseudotaktowa	!
2BB-/	-as
=27-	=27-
2.F\	a-
4F\	-gi-
!LO:TX:t=P:problem:kreska pseudotaktowa	!
2F\	-m(us)
=28-	=28-
1G	Ti-
!LO:TX:t=P:problem:kreska pseudotaktowa	!
2G\	-bi
=29-	=29-
1D	p(ro)-
2D\	-pter
=30-	=30-
1E-X	ma-
!LO:TX:t=P:problem:kreska pseudotaktowa	!
2E-\	-gna(m)
=31-	=31-
2.D/	glo-
4C#X/	-ri-
!LO:TX:t=P:problem:kreska pseudotaktowa	!
2D/	-am
=32-	=32-
2G\	tu-
1A	.
=33-	=33-
1.D	-am
=34-	=34-
0.r	.
=35-	=35-
.	.
!LO:LB:g=original	!
=36-	=36-
*M2/1	*
*met(C|)	*
2r	.
!LO:TX:t=P:problem:kreska pseudotaktowa	!
2G\	Do-
2B-\	-mi-
!LO:TX:t=P:problem:kreska pseudotaktowa	!
2B-\	-ne
=37-	=37-
1A	De-
!LO:TX:t=P:problem:kreska pseudotaktowa	!
1G,<	-(us)
=38-	=38-
00r	.
=39-	=39-
.	.
=40-	=40-
!LO:TX:t=P:problem:kreska pseudotaktowa	!
1r	.
2r	.
1G\	Rex
=41-	=41-
.	.
2F\	cae-
1E	-les-
=42-	=42-
!LO:TX:t=P:problem:kreska pseudotaktowa	!
1D	-tis
00r	.
=43-	=43-
.	.
=44-	=44-
.	.
!LO:TX:t=P:problem:kreska pseudotaktowa	!
1r	.
=45-	=45-
2G\	De-
2G\	-us
1G	Pa-
=46-	=46-
2F\	-ter
!LO:TX:t=P:problem:kreska pseudotaktowa	!
2D\	o-
1E-X	-mni-
=47-	=47-
2.D\	.
4D\	-po-
!LO:TX:t=P:problem:kreska pseudotaktowa	!
1GG,<	-tens
=48-	=48-
00r	.
=49-	=49-
.	.
=50-	=50-
00r	.
=51-	=51-
.	.
=52-	=52-
0r	.
=53-	=53-
!LO:TX:t=P:problem:kreska pseudotaktowa	!
1r	.
2r	.
2.G\	Do-
=54-	=54-
.	.
4F\	-mi-
1F	-ne
!LO:TX:t=P:problem:kreska pseudotaktowa	!
[<2E-X\	De-
=55-	=55-
!LO:N:xstem:cue	!
4E-]	.
4D,<\	-us
2.D\	A-
4C,</	-gn(us)
!LO:TX:t=P:problem:kreska pseudotaktowa	!
[2C/	De-
=56-	=56-
!LO:N:xstem:cue	!
4C/]	.
4BB-/	.
2BB-,</	-i
2AA/	Fi-
4AA/	-li-
!LO:TX:t=P:problem:kreska pseudotaktowa	!
4AA/	-(us)
!LO:LB:g=original	!
=57-	=57-
1GG	P(at)-
!LO:TX:t=P:problem:kreska pseudotaktowa	!
1D	-ris,
=58-	=58-
00r	.
=59-	=59-
.	.
=60-	=60-
00r	.
=61-	=61-
.	.
=62-	=62-
!LO:TX:t=P:problem:kreska pseudotaktowa	!
0r	.
=63-	=63-
2r	.
2D\	Fi-
2G\	-li-
!LO:TX:t=P:problem:kreska pseudotaktowa	!
2G\	-us
=64-	=64-
*lig	*
1G	Pa-
1GG	.
*Xlig	*
=65-	=65-
0Dl;	-tris.
=66||	=66||
*M2/1	*
*met(C|)	*
!LO:TX:t=P:problem:kreska pseudotaktowa	!
1D	Qui
2G\	tol-
4G\	-lis
!LO:TX:t=P:problem:kreska pseudotaktowa	!
4F#X\	p(e)c-
=67-	=67-
4G\	-(ca)-
4A\	-ta
2B-\	mun-
!LO:TX:t=P:problem:kreska pseudotaktowa	!
1A,<	-di,
=68-	=68-
00r	.
=69-	=69-
.	.
=70-	=70-
00r	.
=71-	=71-
.	.
=72-	=72-
00r	.
=73-	=73-
.	.
=74-	=74-
*M3/2	*
2.B-\	Sus-
4B-\	-ci-
2B-\	-pe
=75-	=75-
1Fny	de-
!LO:TX:t=P:problem:kreska pseudotaktowa	!
2F\	-pre-
=76-	=76-
1G	-ca-
!LO:TX:t=P:problem:kreska pseudotaktowa	!
2G\	-ti-
=77-	=77-
2.D/	-o-
4C/	.
!LO:TX:t=P:problem:kreska pseudotaktowa	!
2BB-/	.
=78-	=78-
2GG/	-nem
!LO:TX:t=P:problem:kreska pseudotaktowa	!
1D	no-
=79-	=79-
*M2/1	*
*met(C|)	*
(4GG/	-stram
4AA/	.
4BB-/	.
!LO:TX:t=P:problem:kreska pseudotaktowa	!
4C/)	.
!LO:LB:g=original	!
!LO:TX:t=P:problem:kreska pseudotaktowa	!
1D	.
=80-	=80-
00r	.
=81-	=81-
.	.
=82-	=82-
00r	.
=83-	=83-
.	.
=84-	=84-
00r	.
=85-	=85-
.	.
=86-	=86-
!LO:TX:t=P:problem:kreska pseudotaktowa	!
0r	.
=87-	=87-
1.G	Quo-
2G\	-ni-
=88-	=88-
!LO:TX:t=P:problem:kreska pseudotaktowa	!
1D,<	-am
!LO:TX:t=P:problem:kreska pseudotaktowa	!
1r	.
=89-	=89-
2r	.
2G\	Tu
2BB-/	so-
2F\	-l(us)
=90-	=90-
!LO:TX:t=P:problem:kreska pseudotaktowa	!
1G	S(an)-
2D,</	-ct(us)
*	*ij
2BB-/	Tu
=91-	=91-
2F\	so-
2F\	-l(us)
1G	S(an)-
=92-	=92-
!LO:TX:t=P:problem:kreska pseudotaktowa	!
1D,<	-ct(us)
*	*Xij
0r	.
=93-	=93-
.	.
2r	.
2C/	Tu
=94-	=94-
2G\	so-
2GG/	-l(us)
2.C/	Do-
4C/	-mi-
=95-	=95-
!LO:TX:t=P:problem:kreska pseudotaktowa	!
1GG	-n(us)
1r	.
=96-	=96-
2r	.
!LO:TX:t=P:problem:kreska pseudotaktowa	!
2G\	Tu
2.G\	so-
!LO:TX:t=P:problem:kreska pseudotaktowa	!
4G\	-l(us)
=97-	=97-
2G\	al-
1F	-tiſ-
!LO:TX:t=P:problem:kreska pseudotaktowa	!
2F\	-si-
=98-	=98-
1E-X,<	-m(us)
2.D/	Je-
4C/	.
=99-	=99-
2BB-/	.
!LO:TX:t=P:problem:kreska pseudotaktowa	!
!LO:SIC:v:t=custos AA	!
2BB-/	-su
!LO:LB:g=original	!
2AA/	Chri-
2A\	.
=100-	=100-
!LO:TX:t=P:problem:kreska pseudotaktowa	!
0G	-ste
=101-	=101-
00r	.
=102-	=102-
.	.
=103-	=103-
!LO:TX:t=P:problem:kreska pseudotaktowa	!
0r	.
=104-	=104-
2r	.
2G,<\	Cum
2G\	S(an)-
!LO:TX:t=P:problem:kreska pseudotaktowa	!
2GG/	.
=105-	=105-
1E-X	-cto
2.D\	Spi-
4D\	-ri-
=106-	=106-
!LO:TX:t=P:problem:kreska pseudotaktowa	!
1GG	-tu
1r	.
=107-	=107-
2r	.
*	*ij
2D\	Cum
2G\	S(an)-
!LO:TX:t=P:problem:kreska pseudotaktowa	!
2G\	-cto
=108-	=108-
1E-X	Spi-
2.D\	.
!LO:TX:t=P:problem:kreska pseudotaktowa	!
4D\	-ri-
=109-	=109-
4GG,</	-tu
*	*Xij
4G\	in
4.D\	glo-
!LO:TX:t=P:problem:kreska pseudotaktowa	!
8D\	-(ri)-
2C/	-a
4BB-/	De-
4BB-/	-i
=110-	=110-
2AA/	P(at)-
!LO:TX:t=P:problem:kreska pseudotaktowa	!
2GG/	-ris
0r	.
=111-	=111-
.	.
2r	.
4r	.
!LO:TX:t=P:problem:kreska pseudotaktowa	!
4C/	in
=112-	=112-
4.G\	glo-
8G\	-(ri)-
2F\	-a
4.E-X\	De-
8E-\	-i
4.D/	P(at)-
8BB-/	-ris
=113-	=113-
2C/	A-
4GG,</	-men
4BB-/	in
4.F\	glo-
8F\	-(ri)-
!LO:TX:t=P:problem:kreska pseudotaktowa	!
2G\	-a
=114-	=114-
2r	.
4C/	De-
!LO:TX:t=P:problem:kreska pseudotaktowa	!
4C/	-i
2G\	P(at)-
2GG/	-ris
=115-	=115-
1D	A-
1GGl;	-men
==	==
*-	*-
!!!RDF**kern: < = below
!!!RDF**kern: l = terminal long
!!!ENC: Andrzej Kubiczek
!!!END: 2021-08-02
!!!ENC: Berenika Jozajtis
!!!END: 2021-07-05
